!!!COM: Bach, Johann Sebastian
!!!CDT: 1685/3//-1750/7/28/
!!!OTL@@DE: Ach bleib bei uns, Herr Jesu Christ
!!!AGN: 4-Part Chorale
!!!SCT: BH 177
!!!SCT: BWV 253
**harm	**root	**kern	**kern	**kern	**kern
!	!	!bass	!tenor	!alto	!soprno
*	*Iorgan	*Iorgan	*Iorgan	*Iorgan	*Iorgan
*M4/4	*M4/4	*M4/4	*M4/4	*M4/4	*M4/4
*met(c)	*met(c)	*met(c)	*met(c)	*met(c)	*met(c)
*MM60	*MM60	*MM60	*MM60	*MM60	*MM60
*k[f#c#]	*k[f#c#]	*k[f#c#]	*k[f#c#]	*k[f#c#]	*k[f#c#]
*D:	*D:	*D:	*D:	*D:	*D:
I	4AA	4D	4a	4dd	4ff#
=1	=1	=1	=1	=1	=1
I	4AA	4d	4a	4dd	8ff#
.	.	.	.	.	8gg
Vb	4EE	4c#	4a	4ee	4aa
I	4AA	4d	4a	4dd	4ff#
IVb	4DD	4B	8a	4dd	4dd
.	.	.	8g	.	.
=2	=2	=2	=2	=2	=2
IV/IV	4GG	4c	4g	8cc	4ee
.	.	.	.	8b	.
V/IV	4AA	4d	4d	4a	4ff#
I/IV;	4DD;	4G;	4d;	4b;	4gg;
I	4AA	4D	4d	4a	4ff#
=3	=3	=3	=3	=3	=3
V	4EE	4A	4c#	8a	4ee
.	.	.	.	8g	.
vi	4FF#	8B	4d	4f#	4dd
.	.	8A	.	.	.
IV	4DD	8G	2g	2b	4.dd
.	.	8A	.	.	.
IVb	4DD	8B	.	.	.
.	.	8c#	.	.	8ee
=4	=4	=4	=4	=4	=4
I	4AA	4d	8f#	4a	4ff#
.	.	.	8e	.	.
Ib	4AA	8F#	4d	4a	4ff#
.	.	8G	.	.	.
V	4EE	4A	4d	4.a	8ee
.	.	.	.	.	8dd
V	4EE	4A	4c#	.	4ee
.	.	.	.	8g	.
!!linebreak: 2
=5	=5	=5	=5	=5	=5
I;	2.AA;	2.D;	2.A;	2.f#;	2.dd;
I	4AA	4D	4a	4dd	4ff#
=6	=6	=6	=6	=6	=6
V	4EE	4A	8a	4cc#	4ee
.	.	.	8g	.	.
Vb/vi	4CC#	4A#	4f#	4cc#	4ff#
vi	4FF#	4B	4f#	8b	4dd
.	.	.	.	8a	.
V/V	4BB	8e	4e	4g#	4b
.	.	8d	.	.	.
=7	=7	=7	=7	=7	=7
Vb	4EE	4c#	4e	4.a	4cc#
viib/V	4DD#	4B	4d	.	4dd
.	.	.	.	8g#	.
V;	4EE;	4A;	4c#;	4a;	4ee;
V/vi	4CC#	4F#	4c#	4a#	4ff#
=8	=8	=8	=8	=8	=8
vi	4FF#	8B	4d	4f#	4dd
.	.	8A	.	.	.
IVb	4DD	8B	4g	4b	4dd
.	.	8c#	.	.	.
I	4AA	8d	8f#	4a	4.dd
.	.	8e	8g	.	.
vib	8FF#	8d	8f#	8b	.
vii	8GG#	8c#	8e	8cc#	8ee
=9	=9	=9	=9	=9	=9
vi	4FF#	4B	4d	4dd	4ff#
Ib	4AA	8F#	4d	4a	4ff#
.	.	8G	.	.	.
V	4EE	4A	4d	4.a	8ee
.	.	.	.	.	8dd
V	4EE	4A	4c#	.	4ee
.	.	.	.	8g	.
=10	=10	=10	=10	=10	=10
I;	2.AA;	2.D;	2.A;	2.f#;	2.dd;
====	====	====	====	====	====
*-	*-	*-	*-	*-	*-
!!chor2scor: -l 2 -s 0.6 -o %b.pmx
!!!YEC: Copyright 1994, David Huron
!!!YEC: Changes/Additions 2001 by Craig Stuart Sapp
!!!YEN: United States of America
!!!SMA: 371 Bach Chorales, edited by Ludwig Erk, C.F. Peters
!!!PDT: 1850, 1865
!!!ONB: Harmony and Root analysis done manually
